X: 4031
T: Blaggard, The
R: hornpipe
M: 4/4
K: Gmajor
BdcA BGDC|(3B,CD G,B, DGFG|EGcG DGBG|(3ABA (3GFE D(d{e}d)c|
(3Bcd (3cBA BG DC|B,G,DG, GG,DG|EGcG BGFG|1 (3ABA GF GBdc:|2 (3ABA GF G^GA=G||
|:FAdA Bged|afdA FDFA|GdBG FADF|EA,^CE AGFE|
(3FGA DF GBdB|Age^c dcBA|FAD=c DBAF|1 G2 GF G^GA=G:|2 G2 GF G4||

